assets/imgs/telefone.svg

<svg width="18" height="19" viewBox="0 0 18 19" fill="none" xmlns="http://www.w3.org/2000/svg">
<path fill-rule="evenodd" clip-rule="evenodd" d="M15.3774 3.18213C13.6853 1.48806 11.435 0.554704 9.03764 0.553711C4.09762 0.553711 0.0771637 4.57406 0.0751766 9.5154C0.0745143 11.095 0.487158 12.6369 1.27149 13.9961L0 18.6402L4.75114 17.3939C6.06027 18.108 7.53411 18.4844 9.034 18.4848H9.03775C13.9772 18.4848 17.9981 14.4641 18 9.52257C18.001 7.12774 17.0696 4.87609 15.3774 3.18213ZM9.03764 16.9712H9.03455C7.69793 16.9707 6.38703 16.6115 5.24316 15.9329L4.97126 15.7714L2.15186 16.511L2.9044 13.7622L2.72722 13.4803C1.98153 12.2943 1.58776 10.9234 1.58842 9.51595C1.58997 5.40884 4.93174 2.0674 9.04062 2.0674C11.0303 2.06806 12.9007 2.84389 14.3071 4.25193C15.7135 5.65998 16.4875 7.53155 16.4869 9.52202C16.4851 13.6295 13.1435 16.9712 9.03764 16.9712V16.9712ZM13.1237 11.3922C12.8998 11.28 11.7988 10.7384 11.5934 10.6636C11.3883 10.5888 11.2389 10.5516 11.0897 10.7757C10.9404 10.9998 10.5113 11.5043 10.3806 11.6537C10.2499 11.8031 10.1194 11.8219 9.89539 11.7098C9.6714 11.5977 8.94988 11.3611 8.09446 10.5982C7.4288 10.0044 6.97939 9.2711 6.84869 9.04701C6.71821 8.82269 6.84759 8.71318 6.94694 8.58998C7.18936 8.28895 7.43211 7.97334 7.50673 7.82398C7.58147 7.67451 7.54405 7.5437 7.48797 7.43165C7.43211 7.3196 6.98425 6.21734 6.79769 5.76882C6.61576 5.33233 6.4313 5.39128 6.29375 5.38444C6.16327 5.37793 6.01391 5.3766 5.86455 5.3766C5.7153 5.3766 5.47266 5.43257 5.26733 5.65689C5.06211 5.88109 4.48366 6.42278 4.48366 7.52504C4.48366 8.6273 5.2861 9.69213 5.39803 9.8416C5.50997 9.99107 6.97719 12.253 9.22354 13.2229C9.75784 13.4538 10.1749 13.5915 10.5002 13.6947C11.0367 13.8651 11.5248 13.8411 11.9107 13.7835C12.341 13.7191 13.2355 13.2417 13.4223 12.7186C13.6088 12.1955 13.6088 11.7472 13.5528 11.6537C13.4969 11.5603 13.3475 11.5043 13.1237 11.3922V11.3922Z" fill="#222222"/>
</svg>

<svg width="18" height="19" fill="none" xmlns="http://www.w3.org/2000/svg"><path fill-rule="evenodd" clip-rule="evenodd" d="M15.377 3.182A8.904 8.904 0 009.037.554c-4.94 0-8.96 4.02-8.962 8.961 0 1.58.412 3.122 1.196 4.481L0 18.64l4.751-1.246a8.953 8.953 0 004.283 1.09h.004c4.94 0 8.96-4.02 8.962-8.961a8.907 8.907 0 00-2.623-6.34zm-6.34 13.79h-.002a7.44 7.44 0 01-3.792-1.04l-.272-.16-2.82.739.753-2.749-.177-.282a7.43 7.43 0 01-1.139-3.964c.002-4.107 3.344-7.449 7.453-7.449 1.99.001 3.86.777 5.266 2.185a7.405 7.405 0 012.18 5.27c-.002 4.107-3.343 7.45-7.45 7.45zm4.087-5.58c-.224-.112-1.325-.654-1.53-.728-.206-.075-.355-.112-.504.112-.15.224-.579.728-.71.878-.13.15-.26.168-.485.056-.224-.112-.945-.349-1.8-1.112-.666-.594-1.116-1.327-1.246-1.551-.13-.224-.001-.334.098-.457.242-.301.485-.617.56-.766.074-.15.037-.28-.019-.392-.056-.112-.504-1.215-.69-1.663-.182-.437-.367-.378-.504-.385a8.954 8.954 0 00-.43-.007.823.823 0 00-.597.28c-.205.224-.783.766-.783 1.868s.802 2.167.914 2.317c.112.15 1.58 2.411 3.826 3.38.534.232.95.37 1.276.473.537.17 1.025.146 1.41.088.431-.064 1.325-.541 1.512-1.064.187-.524.187-.972.13-1.065-.055-.094-.204-.15-.428-.262z" fill="#222"/></svg>
